X:1
T:I Am Determined to Hold Out
T:I Am Determined to Hold Out
T:Chetwynd S. & T. P. Hamilton
T:Chetwynd S. & T. P. Hamilton, 1900
T:Public Domain Courtesy of the Cyber Hymnal™
T:Public Domain Courtesy of the Cyber Hymnal™
C:Chetwynd S. & T. P. Hamilton
Z:Public Domain
Z:Courtesy of the Cyber Hymnal™
%%score ( 1 2 ) ( 3 4 )
L:1/8
Q:1/4=88
M:4/4
K:Eb
V:1 treble 
V:2 treble 
V:3 bass 
V:4 bass 
V:1
 [EG][EG][EF]E [EG] [GB]3 | [Ac][Ac][A=B][AB] [G_B]3 [GB] | [Ac][Ad][Ae][Ac] [Ac] [GB]2 [EG] | %3
w: 1.~When I first found Je- sus,|some- thing o’er me stole, Like|light- ning it went through me, and|
w: 2.~Sa- tan, he was an- gry,|said he’d soon be back; Just|let the path get nar- row, and|
w: 3.~This old- time re- li- gion|makes me some- times shout, I|don’t have time to gos- sip, nor|
w: 4.~When I hear the trump- et|sound- ing in the sky, And|see the mount- ains tremb- ling, to|
 [DF][DG][E=A][Ec] [DB]3 [D_A] | [EG][EG][DG][DF] E [EG]2 [GB] | [GB][GB][Gc][EG] [GB]3 [GB] | %6
w: glo- ry filled my soul; Sal-|va- tion made me hap- py, and|took my fears a- way, And|
w: he will lose the track; But|I’m so full of glo- ry, my|Lord I al- ways find, And|
w: an- y time to pout; They|say that I’m too nois- y, but|when these bless- ings flow, I|
w: Heav- en I will fly; For|Je- sus will be call- ing, there’ll|be no time to mend, With|
 [Ac][Ad][Ae][Ac] [Ac] [GB]2 [EG] | [DF][DG][E=A][Ec] [DB]3 z || %8
w: when I meet old Sa- tan, to|him I al- ways say:|
w: I just say to Sa- tan, “Old|man, get thee be- hind.”|
w: shout, O hal- le- lu- jah, I|want the world to know.|
w: joy I’ll go up sing- ing, “I’ve|held out to the end.”|
"^Refrain" [Ge] [Ge]2 [Gc] [GB] [EG]2 E | [EG][EG][B,F][B,E] [EG]4 | %10
w: ||
w: “I am de- ter- mined to|hold out to the end,|
w: ||
w: ||
 [Ge] [Ge]2 [Gc] [GB] [EG]2 [EG] | [DF][DG][E=A][Ec] [DB]2 [_Ac][Ad] | %12
w: ||
w: Je- sus is with me, on|Him I can de- pend; And I|
w: ||
w: ||
 [Ge][Ge][Ge][Gc] [GB][EG][B,F][B,E] | [EG][EG][B,F][B,E] [EG]4 | %14
w: ||
w: know I have sal- va- tion, for I|feel it in my soul;|
w: ||
w: ||
 [Ge] [Ge]2 [Gc] [GB] [EG]2 [B,E] | [B,F][B,=E][B,F][B,G] [B,_E]3 z |] %16
w: ||
w: I am de- ter- mined to|hold out to the end.”|
w: ||
w: ||
V:2
 x3 E x4 | x8 | x8 | x8 | x4 E x3 | x8 | x8 | x8 || x7 E | x8 | x8 | x8 | x8 | x8 | x8 | x8 |] %16
V:3
 [E,B,][E,B,][E,A,][E,G,] [E,B,] [E,E]3 | [A,E][A,E][A,D][A,E] [E,E]3 [E,B,] | %2
 A,[A,B,][A,C][A,E] [E,E] [E,E]2 [E,B,] | [F,B,][F,B,][F,C][F,=A,] [B,,B,]3 [B,,B,] | %4
 [E,B,][E,B,][B,,B,][B,,A,] [E,G,] [E,B,]2 [E,E] | [E,E][E,E][E,E][E,B,] [E,E]3 [E,E] | %6
 A,[A,B,][A,C][A,E] [E,E] [E,E]2 [E,B,] | [F,B,][F,B,][F,C][F,=A,] [B,,B,]3 z || %8
 [E,B,] [E,B,]2 [E,C] [E,E] [E,B,]2 [E,G,] | [E,B,][E,B,][E,A,][E,G,] [E,B,]4 | %10
 [E,B,] [E,B,]2 [E,C] [E,E] [E,B,]2 [E,B,] | [F,B,][F,B,][F,C][F,=A,] [B,,B,]2 [B,,B,][B,,B,] | %12
 [E,B,][E,B,][E,B,][E,C] [E,E][E,B,][E,A,][E,G,] | [E,B,][E,B,][E,A,][E,G,] [E,B,]4 | %14
 [E,B,] [E,B,]2 [E,E] [E,G] [E,B,]2 [E,G,] | [B,,A,][B,,G,][B,,A,][B,,B,] [E,G,]3 z |] %16
V:4
 x8 | x8 | A, x7 | x8 | x8 | x8 | A, x7 | x8 || x8 | x8 | x8 | x8 | x8 | x8 | x8 | x8 |] %16

